X:46
T:Allons petits
R:Bourre
C:trad
A:Arige
O:France
M:2/4
L:1/8
Q:1/4=110
K:C
cd ef|g3g|fe fg|a2g2:||:eg gg|f2f2|df ff| ed c2:||
